_icons/SVG/555-darmanitan-shiny.svg

<svg xmlns="http://www.w3.org/2000/svg" viewBox="0 0 32 32"><title>555-darmanitan-shiny</title><path d="M11.45642,25.03565c-.01977-.04187-.02917-.07092-.05041-.11456-.60169-1.53528-.47583-2.40345.01983-2.9325L9.50391,19.35334C7.81622,21.76746,7.41779,23.66877,8.85,24.84186l-.00647.002A6.5988,6.5988,0,0,0,11.45642,25.03565Z" style="fill:#89283b"/><path d="M8.84357,24.84382c-.68787.1463-1.15174.4533-1.24182,1.02832.11889.81237,2.39392,1.13739,3.99359.6737.40423-.03851.32165-.53595-.13892-1.51019A6.5988,6.5988,0,0,1,8.84357,24.84382Z" style="fill:#dbba8c"/><path d="M5.91754,24.9607,5.1947,23.76728,3.94775,25.27442,2.76587,23.19257l-.94336,2.16858-.80237-2.16858-.75043,1.744c-.42523,4.2569-.09521,5.817.77362,5.45318a13.17014,13.17014,0,0,0,6.30085.35663c.64392.13037.95257-.78058.57458-3.82409A4.2581,4.2581,0,0,0,5.91754,24.9607Z" style="fill:#e5c79a"/><path d="M1.82251,25.36115l.94336-2.16858,1.18188,2.08185,1.247-1.50714.72284,1.19342a17.97141,17.97141,0,0,1,.37647-5.429L9.24628,15.233,8.751,12.26,2.23212,15.72742C.96814,17.2323.30963,20.20356.29034,24.723c-.00769.07415-.01336.141-.02063.21362l.75043-1.744Z" style="fill:#993147"/><path d="M8.14832,14.96479c0,4.975,3.51532,9.00811,7.85168,9.00811V5.95667C11.66364,5.95667,8.14832,9.98975,8.14832,14.96479Z" style="fill:#912b41"/><polygon points="14.554 9.422 12.674 8.503 11.003 11.26 12.674 13.934 14.68 12.43 16 13.734 16 10.851 14.554 9.422" style="fill:#e0c193"/><ellipse cx="13.24378" cy="11.21795" rx="1.6298" ry="1.227" transform="translate(-1.15668 20.90643) rotate(-74.19806)" style="fill:#f7f7f7"/><ellipse cx="13.19633" cy="11.38558" rx="0.86641" ry="0.65228" transform="translate(-1.35251 20.98277) rotate(-74.19806)" style="fill:#373f3f"/><path d="M14.65552,14.10267,12.31744,16.0246,10.21716,13.211C10.09485,17.7865,12.09973,19.70539,16,19.76386V15.623Z" style="fill:#dadddc"/><path d="M13.19635,8.15845l.22223-.98035L10.69269,2.67V3.85883L8.05743,1.38208,5.16461,1.02539,8.01782,4.25507l-.67364.37653c.87787.26422,2.16925,1.64715,3.42206,3.08227l-.55433-2.15106Z" style="fill:#bf538e"/><path d="M14.29889,8.634,13.41858,7.1781l-.22223.98035L10.21191,5.56281l.55433,2.15106c1.65966,1.90119,3.25158,3.89435,3.724,3.50409C16.89447,10.57575,15.41077,7.72254,14.29889,8.634Z" style="fill:#ffd04d"/><path d="M15.07318,22.33539A1.03692,1.03692,0,0,0,16,23.45484V21.21589A1.03694,1.03694,0,0,0,15.07318,22.33539Z" style="fill:#dbba8c"/><ellipse cx="12.4796" cy="21.51128" rx="0.88429" ry="1.06815" style="fill:#dbba8c"/><path d="M20.54358,25.03565c.01977-.04187.02917-.07092.05041-.11456.60169-1.53528.47583-2.40345-.01983-2.9325l1.92193-2.63525c1.68769,2.41412,2.08612,4.31543.65387,5.48852l.00647.002A6.5988,6.5988,0,0,1,20.54358,25.03565Z" style="fill:#7f1e32"/><path d="M23.15643,24.84382c.68787.1463,1.15174.4533,1.24182,1.02832-.11889.81237-2.39392,1.13739-3.99359.6737-.40423-.03851-.32165-.53595.13892-1.51019A6.5988,6.5988,0,0,0,23.15643,24.84382Z" style="fill:#e0c193"/><path d="M26.08246,24.9607l.72284-1.19342,1.247,1.50714,1.18188-2.08185.94336,2.16858.80237-2.16858.75043,1.744c.42523,4.2569.09521,5.817-.77362,5.45318a13.17014,13.17014,0,0,1-6.30085.35663c-.64392.13037-.95257-.78058-.57458-3.82409A4.2581,4.2581,0,0,1,26.08246,24.9607Z" style="fill:#eacea1"/><path d="M30.17749,25.36115l-.94336-2.16858-1.18188,2.08185-1.247-1.50714-.72284,1.19342a17.97141,17.97141,0,0,0-.37647-5.429L22.75372,15.233,23.249,12.26l6.51886,3.46747c1.264,1.50488,1.92249,4.47614,1.94178,8.99555.00769.07415.01336.141.02063.21362l-.75043-1.744Z" style="fill:#912b41"/><path d="M23.85168,14.96479c0,4.975-3.51532,9.00811-7.85168,9.00811V5.95667C20.33636,5.95667,23.85168,9.98975,23.85168,14.96479Z" style="fill:#89283b"/><polygon points="17.446 9.422 19.326 8.503 20.997 11.26 19.326 13.934 17.32 12.43 16 13.734 16 10.851 17.446 9.422" style="fill:#e5c79a"/><ellipse cx="18.75622" cy="11.21795" rx="1.227" ry="1.6298" transform="translate(-2.34597 5.5315) rotate(-15.80194)" style="fill:#edeeee"/><ellipse cx="18.80367" cy="11.38558" rx="0.65228" ry="0.86641" transform="translate(-2.38983 5.55076) rotate(-15.80194)" style="fill:#2b3332"/><path d="M17.34448,14.10267l2.33808,1.92193,2.10028-2.8136c.12231,4.5755-1.88257,6.49439-5.78284,6.55286V15.623Z" style="fill:#e3e5e5"/><path d="M18.80365,8.15845l-.22223-.98035L21.30731,2.67V3.85883l2.63526-2.47675,2.89282-.35669L23.98218,4.25507l.67364.37653c-.87787.26422-2.16925,1.64715-3.42206,3.08227l.55433-2.15106Z" style="fill:#b54e8b"/><path d="M17.70111,8.634l.88031-1.45588.22223.98035,2.98444-2.59564-.55433,2.15106c-1.65966,1.90119-3.25158,3.89435-3.724,3.50409C15.10553,10.57575,16.58923,7.72254,17.70111,8.634Z" style="fill:#f7c845"/><path d="M16.92682,22.33539A1.03692,1.03692,0,0,1,16,23.45484V21.21589A1.03694,1.03694,0,0,1,16.92682,22.33539Z" style="fill:#e0c193"/><ellipse cx="19.5204" cy="21.51128" rx="0.88429" ry="1.06815" style="fill:#e0c193"/></svg>

<svg xmlns="http://www.w3.org/2000/svg" viewBox="0 0 32 32"><path d="M11.456 25.036c-.02-.042-.029-.071-.05-.115-.602-1.535-.476-2.403.02-2.932l-1.922-2.636c-1.688 2.414-2.086 4.316-.654 5.489l-.006.002a6.599 6.599 0 002.612.192z" fill="#89283b"/><path d="M8.844 24.844c-.688.146-1.152.453-1.242 1.028.119.813 2.394 1.138 3.993.674.405-.039.322-.536-.139-1.51a6.599 6.599 0 01-2.612-.192z" fill="#dbba8c"/><path d="M5.918 24.96l-.723-1.193-1.247 1.507-1.182-2.081-.943 2.168-.803-2.168-.75 1.744c-.426 4.256-.096 5.817.773 5.453a13.17 13.17 0 006.301.356c.644.13.953-.78.575-3.824a4.258 4.258 0 00-2.001-1.961z" fill="#e5c79a"/><path d="M1.823 25.361l.943-2.168 1.182 2.081 1.247-1.507.723 1.194a17.971 17.971 0 01.376-5.43l2.952-4.298-.495-2.973-6.519 3.467C.968 17.232.31 20.204.29 24.723l-.02.214.75-1.744z" fill="#993147"/><path d="M8.148 14.965c0 4.975 3.516 9.008 7.852 9.008V5.957c-4.336 0-7.852 4.033-7.852 9.008z" fill="#912b41"/><path fill="#e0c193" d="M14.554 9.422l-1.88-.919-1.671 2.757 1.671 2.674 2.006-1.504L16 13.734v-2.883l-1.446-1.429z"/><ellipse cx="13.244" cy="11.218" rx="1.63" ry="1.227" transform="rotate(-74.198 13.244 11.218)" fill="#f7f7f7"/><ellipse cx="13.196" cy="11.386" rx=".866" ry=".652" transform="rotate(-74.198 13.196 11.386)" fill="#373f3f"/><path d="M14.656 14.103l-2.339 1.922-2.1-2.814c-.122 4.575 1.883 6.494 5.783 6.553v-4.141z" fill="#dadddc"/><path d="M13.196 8.158l.223-.98-2.726-4.508v1.189L8.057 1.382l-2.892-.357 2.853 3.23-.674.377c.878.264 2.17 1.647 3.422 3.082l-.554-2.151z" fill="#bf538e"/><path d="M14.299 8.634l-.88-1.456-.223.98-2.984-2.595.554 2.15c1.66 1.902 3.252 3.895 3.724 3.505 2.404-.642.92-3.495-.191-2.584z" fill="#ffd04d"/><path d="M15.073 22.335a1.037 1.037 0 00.927 1.12v-2.24a1.037 1.037 0 00-.927 1.12z" fill="#dbba8c"/><ellipse cx="12.48" cy="21.511" rx=".884" ry="1.068" fill="#dbba8c"/><path d="M20.544 25.036c.02-.042.029-.071.05-.115.602-1.535.476-2.403-.02-2.932l1.922-2.636c1.688 2.414 2.086 4.316.654 5.489l.006.002a6.599 6.599 0 01-2.612.192z" fill="#7f1e32"/><path d="M23.156 24.844c.688.146 1.152.453 1.242 1.028-.119.813-2.394 1.138-3.993.674-.405-.039-.322-.536.139-1.51a6.599 6.599 0 002.612-.192z" fill="#e0c193"/><path d="M26.082 24.96l.723-1.193 1.247 1.507 1.182-2.081.944 2.168.802-2.168.75 1.744c.426 4.256.096 5.817-.773 5.453a13.17 13.17 0 01-6.301.356c-.644.13-.953-.78-.575-3.824a4.258 4.258 0 012.001-1.961z" fill="#eacea1"/><path d="M30.177 25.361l-.943-2.168-1.182 2.081-1.247-1.507-.723 1.194a17.971 17.971 0 00-.376-5.43l-2.952-4.298.495-2.973 6.519 3.467c1.264 1.505 1.922 4.477 1.942 8.996l.02.214-.75-1.744z" fill="#912b41"/><path d="M23.852 14.965c0 4.975-3.516 9.008-7.852 9.008V5.957c4.336 0 7.852 4.033 7.852 9.008z" fill="#89283b"/><path fill="#e5c79a" d="M17.446 9.422l1.88-.919 1.671 2.757-1.671 2.674-2.006-1.504L16 13.734v-2.883l1.446-1.429z"/><ellipse cx="18.756" cy="11.218" rx="1.227" ry="1.63" transform="rotate(-15.802 18.756 11.218)" fill="#edeeee"/><ellipse cx="18.804" cy="11.386" rx=".652" ry=".866" transform="rotate(-15.802 18.804 11.386)" fill="#2b3332"/><path d="M17.344 14.103l2.339 1.922 2.1-2.814c.122 4.575-1.883 6.494-5.783 6.553v-4.141z" fill="#e3e5e5"/><path d="M18.804 8.158l-.223-.98 2.726-4.508v1.189l2.636-2.477 2.892-.357-2.853 3.23.674.377c-.878.264-2.17 1.647-3.422 3.082l.554-2.151z" fill="#b54e8b"/><path d="M17.701 8.634l.88-1.456.223.98 2.984-2.595-.554 2.15c-1.66 1.902-3.252 3.895-3.724 3.505-2.404-.642-.92-3.495.191-2.584z" fill="#f7c845"/><path d="M16.927 22.335a1.037 1.037 0 01-.927 1.12v-2.24a1.037 1.037 0 01.927 1.12z" fill="#e0c193"/><ellipse cx="19.52" cy="21.511" rx=".884" ry="1.068" fill="#e0c193"/></svg>
